X: 1
T: Tantst Yidelekh Hora   [Dm]
S: From transcription by Steve Rauch of a Klezmatics recording
Z: 2016 John Chambers <jc:trillian.mit.edu>
Q: "Zhok"
M: 3/4
L: 1/8
K: Dm
|:\
"Dm"A3 =B ^c<d | "Dm"e2 f2 g<^g | "Dm"a6- | a4 z2 |\
"E"^g3 f ef | "E"^g3 f ef | "Dm"a2 a2 a2 | "Dm"a4 z2 |
"Dm"A3 =B ^c<d | "Dm"e2 f2 ^f2 | "Gm"g6 | "E"^g6 |\
"Dm"a3 ^g (3agf | "A7"f3 e (3fed | "Dm"d2 "A7"d2 "Gm"d2 | "Dm"d4 z2 :|
